packages/web/src/assets/Sweden-chart.svg

<svg height="122" viewBox="0 0 291 122" width="291" xmlns="http://www.w3.org/2000/svg" xmlns:xlink="http://www.w3.org/1999/xlink"><linearGradient id="a" x1="50%" x2="50%" y1="0%" y2="84.014852%"><stop offset="0" stop-color="#5e18fe"/><stop offset="1" stop-color="#5e18fe" stop-opacity="0"/></linearGradient><linearGradient id="b" x1="50%" x2="50%" y1="32.837347%" y2="65.389866%"><stop offset="0" stop-color="#5e18fe"/><stop offset="1" stop-color="#b0c2e6" stop-opacity="0"/></linearGradient><path d="m25 149.5c1.1120718.437828 2.07348.85336 2.8842247 1.246594 1.2161169.589852 3.2612111 1.116131 3.8907227 1.63854.6295117.522408 3.9565562 3.14385 4.5258025 3.887108.5692462.743257 4.020752 3.717118 4.5421789 4.585864s1.7067562 3.318539 2.19412 4.067602c.4873639.749062 3.4845862 7.078777 3.9300263 7.659784s5.6397303 7.643199 6.1539516 8.208174c.5142213.564976 2.3284071 3.763555 3.0928609 3.763555s2.7122717-.367069 3.4731227-.81236 3.2680892-1.710128 3.9575388-1.710128c.6894495 0 3.9362493.716722 4.6627097 1.213425.7264605.496703 6.1303502 2.065029 7.9940575 2.475508 1.8637074.41048 5.0812068 1.122988 5.6268079 1.122988s4.0368293 1.887718 4.4035887 1.887718c.3667595 0 1.9829351.553922 3.6158192-1.101401 1.0885893-1.103548 2.5387812-1.945281 4.3505757-2.525198 1.4722634-1.543524 2.3554703-2.567871 2.6496204-3.07304.4412253-.757755 2.9386137-3.732601 3.5440348-4.690212.605421-.957612 2.119903-2.6951 2.119903-2.6951s.953616-.406998 1.377514 0c.282598.271332 1.505061 1.463429 3.667388 3.57629 2.086665 1.71197 3.129998 2.567955 3.129998 2.567955s2.016107-.09446 3.748527-.785356c1.732421-.690897 3.702484-1.078963 3.702484-.939831s2.8688 2.221931 3.636842 2.966254c.768043.744322 4.485775 5.580011 5.852619 6.139825s5.858874 3.0204 6.621465 3.945878 3.39295 6.017507 4.013501 7.080144c.62055 1.062636 3.275155 4.819213 3.275155 4.819213s.826319.706534 2.097081-1.882395 4.968809-7.387023 5.400507-7.794556 7.608351-.534643 8.328543 0c.720191.534642 2.549252 3.87659 2.883545 4.593741s2.540179 5.801051 2.843741 6.451448c.303561.650396 1.550423 3.347096 1.854146 3.743085.303722.395988 2.350824.678603 3.740101-.205353s4.160728-.602976 4.637545-1.186057c.476817-.583082 2.940992-4.317036 3.347571-4.865234.406578-.548197 6.034734-5.666203 6.661394-6.412122s4.223216-3.817681 4.70181-4.079798c.478593-.262116 1.364734-.262116 1.980091-.262116.615358 0 4.936747.68454 5.810454.864002.582472.119642 3.8682 1.588723 9.857185 4.407244 3.751243 1.977944 5.805395 3.064345 6.162456 3.259205.535592.29229 7.760997.886954 8.208911.886954.447915 0 5.089335 3.736544 6.094801 4.117407s4.181557-.522178 5.321042-1.078816c1.139485-.556639 7.291607-5.146077 8.402028-5.885455s7.796359-7.623662 8.048573-8.191345 2.04484-3.248611 2.459815-3.450795c.414975-.202183 1.333409.75177 1.866741 1.685535.533331.933766 6.096415 9.443291 6.414993 9.443291s1.746446-.494917 2.930497-1.397678c1.18405-.90276 5.903621-4.737279 6.759083-5.501322.855462-.764042 3.811309-5.038566 4.461705-5.880004.650397-.841438 2.114272-1.897137 2.716228-2.150501s5.335736-1.213425 6.055725-1.213425c.71999 0 5.929457 1.462866 6.447772 1.710128.518314.247262 4.43264 2.786709 5.501887 3.88811 1.069246 1.101401 3.501935 3.628114 4.0456 3.908822.362444.187138 5.624842.187138 15.787195 0l.534075 77.458207h-289z" fill="url(#a)" fill-opacity=".43" fill-rule="evenodd" stroke="url(#b)" transform="translate(-24 -148)"/></svg>

<?xml version="1.0" encoding="UTF-8"?>
<svg width="291px" height="122px" viewBox="0 0 291 122" version="1.1" xmlns="http://www.w3.org/2000/svg" xmlns:xlink="http://www.w3.org/1999/xlink">
    <title>路径 12</title>
    <defs>
        <linearGradient x1="50%" y1="0%" x2="50%" y2="84.0148519%" id="linearGradient-1">
            <stop stop-color="#5E18FE" offset="0%"></stop>
            <stop stop-color="#5E18FE" stop-opacity="0" offset="100%"></stop>
        </linearGradient>
        <linearGradient x1="50%" y1="32.8373467%" x2="50%" y2="65.3898655%" id="linearGradient-2">
            <stop stop-color="#5E18FE" offset="0%"></stop>
            <stop stop-color="#B0C2E6" stop-opacity="0" offset="100%"></stop>
        </linearGradient>
    </defs>
    <g id="新官网" stroke="none" stroke-width="1" fill="none" fill-rule="evenodd" fill-opacity="0.43">
        <g id="鼠标触碰" transform="translate(-213.000000, -3539.000000)" fill="url(#linearGradient-1)" stroke="url(#linearGradient-2)">
            <g id="编组-15备份" transform="translate(189.000000, 3351.000000)">
                <g id="编组-11" transform="translate(0.000000, 40.000000)">
                    <path d="M25,149.5 C26.1120718,149.937828 27.07348,150.35336 27.8842247,150.746594 C29.1003416,151.336446 31.1454358,151.862725 31.7749474,152.385134 C32.4044591,152.907542 35.7315036,155.528984 36.3007499,156.272242 C36.8699961,157.015499 40.3215019,159.98936 40.8429288,160.858106 C41.3643557,161.726852 42.549685,164.176645 43.0370488,164.925708 C43.5244127,165.67477 46.521635,172.004485 46.9670751,172.585492 C47.4125152,173.166499 52.6068054,180.228691 53.1210267,180.793666 C53.635248,181.358642 55.4494338,184.557221 56.2138876,184.557221 C56.9783414,184.557221 58.9261593,184.190152 59.6870103,183.744861 C60.4478613,183.29957 62.9550995,182.034733 63.6445491,182.034733 C64.3339986,182.034733 67.5807984,182.751455 68.3072588,183.248158 C69.0337193,183.744861 74.437609,185.313187 76.3013163,185.723666 C78.1650237,186.134146 81.3825231,186.846654 81.9281242,186.846654 C82.4737253,186.846654 85.9649535,188.734372 86.3317129,188.734372 C86.6984724,188.734372 88.314648,189.288294 89.9475321,187.632971 C91.0361214,186.529423 92.4863133,185.68769 94.2981078,185.107773 C95.7703712,183.564249 96.6535781,182.539902 96.9477282,182.034733 C97.3889535,181.276978 99.8863419,178.302132 100.491763,177.344521 C101.097184,176.386909 102.611666,174.649421 102.611666,174.649421 C102.611666,174.649421 103.565282,174.242423 103.98918,174.649421 C104.271778,174.920753 105.494241,176.11285 107.656568,178.225711 C109.743233,179.937681 110.786566,180.793666 110.786566,180.793666 C110.786566,180.793666 112.802673,180.699206 114.535093,180.00831 C116.267514,179.317413 118.237577,178.929347 118.237577,179.068479 C118.237577,179.207611 121.106377,181.29041 121.874419,182.034733 C122.642462,182.779055 126.360194,187.614744 127.727038,188.174558 C129.093882,188.734372 133.585912,191.194958 134.348503,192.120436 C135.111094,193.045914 137.741453,198.137943 138.362004,199.20058 C138.982554,200.263216 141.637159,204.019793 141.637159,204.019793 C141.637159,204.019793 142.463478,204.726327 143.73424,202.137398 C145.005002,199.548469 148.703049,194.750375 149.134747,194.342842 C149.566445,193.935309 156.743098,193.808199 157.46329,194.342842 C158.183481,194.877484 160.012542,198.219432 160.346835,198.936583 C160.681128,199.653734 162.887014,204.737634 163.190576,205.388031 C163.494137,206.038427 164.740999,208.735127 165.044722,209.131116 C165.348444,209.527104 167.395546,209.809719 168.784823,208.925763 C170.1741,208.041807 172.945551,208.322787 173.422368,207.739706 C173.899185,207.156624 176.36336,203.42267 176.769939,202.874472 C177.176517,202.326275 182.804673,197.208269 183.431333,196.46235 C184.057993,195.716431 187.654549,192.644669 188.133143,192.382552 C188.611736,192.120436 189.497877,192.120436 190.113234,192.120436 C190.728592,192.120436 195.049981,192.804976 195.923688,192.984438 C196.50616,193.10408 199.791888,194.573161 205.780873,197.391682 C209.532116,199.369626 211.586268,200.456027 211.943329,200.650887 C212.478921,200.943177 219.704326,201.537841 220.15224,201.537841 C220.600155,201.537841 225.241575,205.274385 226.247041,205.655248 C227.252507,206.036111 230.428598,205.13307 231.568083,204.576432 C232.707568,204.019793 238.85969,199.430355 239.970111,198.690977 C241.080532,197.951599 247.76647,191.067315 248.018684,190.499632 C248.270898,189.931949 250.063524,187.251021 250.478499,187.048837 C250.893474,186.846654 251.811908,187.800607 252.34524,188.734372 C252.878571,189.668138 258.441655,198.177663 258.760233,198.177663 C259.078811,198.177663 260.506679,197.682746 261.69073,196.779985 C262.87478,195.877225 267.594351,192.042706 268.449813,191.278663 C269.305275,190.514621 272.261122,186.240097 272.911518,185.398659 C273.561915,184.557221 275.02579,183.501522 275.627746,183.248158 C276.229702,182.994794 280.963482,182.034733 281.683471,182.034733 C282.403461,182.034733 287.612928,183.497599 288.131243,183.744861 C288.649557,183.992123 292.563883,186.53157 293.63313,187.632971 C294.702376,188.734372 297.135065,191.261085 297.67873,191.541793 C298.041174,191.728931 303.303572,191.728931 313.465925,191.541793 L314,269 L25,269 L25,149.5 Z" id="路径-12"></path>
                </g>
            </g>
        </g>
    </g>
</svg>
